deployments/warp_routes/tETH/logo.svg

<svg width="382" height="383" viewBox="0 0 382 383" fill="none" xmlns="http://www.w3.org/2000/svg">
<g clip-path="url(#clip0_1106_1053)">
<path d="M382 191.5C382 296.987 296.487 382.5 191 382.5C85.5136 382.5 0 296.987 0 191.5C0 86.0136 85.5136 0.5 191 0.5C296.487 0.5 382 86.0136 382 191.5Z" fill="#A1FEA0"/>
<path fill-rule="evenodd" clip-rule="evenodd" d="M191 377.526C293.74 377.526 377.026 294.24 377.026 191.5C377.026 88.7606 293.74 5.47396 191 5.47396C88.2606 5.47396 4.97396 88.7606 4.97396 191.5C4.97396 294.24 88.2606 377.526 191 377.526ZM191 382.5C296.487 382.5 382 296.987 382 191.5C382 86.0136 296.487 0.5 191 0.5C85.5136 0.5 0 86.0136 0 191.5C0 296.987 85.5136 382.5 191 382.5Z" fill="black"/>
<path d="M35.6073 221.44C53.6174 308.044 138.407 363.638 225.012 345.629C311.616 327.619 367.21 242.829 349.2 156.225" fill="#74FF71"/>
<path fill-rule="evenodd" clip-rule="evenodd" d="M225.516 348.061C137.567 366.35 51.461 309.892 33.1713 221.943L38.0411 220.93C55.7714 306.19 139.244 360.921 224.503 343.192C309.762 325.461 364.495 241.988 346.764 156.728L351.634 155.717C369.924 243.665 313.465 329.771 225.516 348.061Z" fill="black"/>
<path d="M200.344 225.958C286.94 207.949 353.626 176.455 349.293 155.615C344.958 134.773 271.244 132.477 184.648 150.486C98.0518 168.494 31.365 199.988 35.699 220.828C40.033 241.669 113.747 243.965 200.344 225.958Z" fill="#74FF71"/>
<path fill-rule="evenodd" clip-rule="evenodd" d="M46.6124 205.452C39.7003 211.545 37.3513 216.559 38.1358 220.332C38.9203 224.103 43.074 227.767 51.8414 230.597C60.3959 233.358 72.4584 235.024 87.252 235.485C116.799 236.405 156.674 232.509 199.838 223.532C243.003 214.555 281.126 202.233 307.857 189.609C321.239 183.287 331.639 176.952 338.383 171.008C345.295 164.918 347.643 159.903 346.859 156.13C346.075 152.358 341.921 148.695 333.153 145.864C324.599 143.103 312.537 141.437 297.743 140.977C268.196 140.056 228.322 143.954 185.157 152.93C141.992 161.906 103.869 174.229 77.1386 186.854C63.7552 193.173 53.3567 199.51 46.6124 205.452ZM75.0146 182.355C102.193 169.52 140.712 157.093 184.144 148.06C227.576 139.028 267.855 135.069 297.897 136.005C312.899 136.472 325.49 138.163 334.681 141.131C343.661 144.03 350.346 148.469 351.729 155.117C353.112 161.765 348.749 168.502 341.672 174.741C334.424 181.127 323.551 187.697 309.981 194.106C282.802 206.941 244.283 219.369 200.851 228.401C157.419 237.433 117.139 241.393 87.0971 240.456C72.0961 239.99 59.5052 238.298 50.3132 235.331C41.3342 232.432 34.6486 227.992 33.2661 221.344C31.8834 214.695 36.2451 207.96 43.324 201.721C50.5707 195.336 61.4435 188.765 75.0146 182.355Z" fill="black"/>
<path d="M323.405 199.321C331.647 199.321 338.328 192.64 338.328 184.399C338.328 176.157 331.647 169.477 323.405 169.477C315.165 169.477 308.484 176.157 308.484 184.399C308.484 192.64 315.165 199.321 323.405 199.321Z" fill="#A1FEA0"/>
<path fill-rule="evenodd" clip-rule="evenodd" d="M323.408 171.975C316.542 171.975 310.974 177.542 310.974 184.41C310.974 191.277 316.542 196.845 323.408 196.845C330.277 196.845 335.843 191.277 335.843 184.41C335.843 177.542 330.277 171.975 323.408 171.975ZM306 184.41C306 174.794 313.794 167 323.408 167C333.023 167 340.817 174.794 340.817 184.41C340.817 194.024 333.023 201.819 323.408 201.819C313.794 201.819 306 194.024 306 184.41Z" fill="black"/>
<path d="M74.4101 308.336C82.6512 308.336 89.3319 301.655 89.3319 293.413C89.3319 285.173 82.6512 278.492 74.4101 278.492C66.1689 278.492 59.4882 285.173 59.4882 293.413C59.4882 301.655 66.1689 308.336 74.4101 308.336Z" fill="#2FFF2B"/>
<path fill-rule="evenodd" clip-rule="evenodd" d="M74.409 280.975C67.5414 280.975 61.9739 286.542 61.9739 293.41C61.9739 300.277 67.5414 305.845 74.409 305.845C81.2766 305.845 86.8438 300.277 86.8438 293.41C86.8438 286.542 81.2766 280.975 74.409 280.975ZM57 293.41C57 283.794 64.7943 276 74.409 276C84.0236 276 91.8178 283.794 91.8178 293.41C91.8178 303.024 84.0236 310.819 74.409 310.819C64.7943 310.819 57 303.024 57 293.41Z" fill="black"/>
<path d="M101.469 180.31L192.326 203.024L283.184 180.309L192.326 78.0938L101.469 180.31Z" fill="white"/>
<path d="M101.469 180.313L192.326 157.598L283.184 180.311" fill="white"/>
<path d="M191.992 78.0938V157.677L102.461 179.563L191.992 78.0938Z" fill="black"/>
<path d="M140.133 102L127 133H133.933L161 102H140.133Z" fill="black"/>
<path d="M132 101.961L121.429 132C116.143 130.513 107.904 126.704 102.551 120.846C95.7551 113.41 94.9994 103.865 95 94.8205C95.0005 88.1282 100.692 77.8716 103.376 74C103.227 74.4301 103.018 76.667 103.376 82.1733C103.823 89.0561 105.165 93.3579 110.979 98.0899C115.631 101.875 126.931 102.248 132 101.961Z" fill="white"/>
<path fill-rule="evenodd" clip-rule="evenodd" d="M132 101.961C130.907 102.023 129.524 102.054 127.981 102.027C122.367 101.929 114.628 101.059 110.979 98.0899C105.165 93.3579 103.823 89.0561 103.376 82.1733C103.359 81.9111 103.343 81.6563 103.329 81.4088C103.038 76.4581 103.234 74.4097 103.376 74C102.359 75.4665 100.911 77.8493 99.5042 80.6074C97.1968 85.1305 95.0002 90.6632 95 94.8205C94.9994 103.865 95.7551 113.41 102.551 120.846C107.904 126.704 116.143 130.513 121.429 132L132 101.961ZM126.684 105.712L119.094 127.28C114.562 125.5 109.089 122.443 105.357 118.359C99.5976 112.057 98.7749 103.825 98.7755 94.8208C98.7756 93.0154 99.3575 90.6405 100.317 88.0459C100.635 89.5499 101.077 91.0059 101.704 92.4232C103.111 95.6034 105.321 98.3087 108.574 100.956C111.785 103.569 116.723 104.698 120.834 105.238C122.834 105.501 124.838 105.646 126.684 105.712Z" fill="black"/>
<path d="M244.868 102L258 133H251.068L224 102H244.868Z" fill="black"/>
<path d="M253 101.961L263.572 132C268.857 130.513 277.096 126.704 282.449 120.846C289.245 113.41 290.001 103.865 290 94.8205C290 88.1282 284.308 77.8716 281.624 74C281.773 74.4301 281.982 76.667 281.624 82.1733C281.177 89.0561 279.835 93.3579 274.021 98.0899C269.369 101.875 258.068 102.248 253 101.961Z" fill="white"/>
<path fill-rule="evenodd" clip-rule="evenodd" d="M253 101.961C254.093 102.023 255.475 102.054 257.019 102.027C262.632 101.929 270.372 101.059 274.021 98.0899C279.835 93.3579 281.177 89.0561 281.624 82.1733C281.641 81.9111 281.657 81.6563 281.671 81.4088C281.962 76.4581 281.766 74.4097 281.624 74C282.641 75.4665 284.088 77.8493 285.496 80.6074C287.803 85.1305 290 90.6632 290 94.8205C290.001 103.865 289.245 113.41 282.449 120.846C277.096 126.704 268.857 130.513 263.572 132L253 101.961ZM258.316 105.712L265.906 127.28C270.437 125.5 275.91 122.443 279.643 118.359C285.402 112.057 286.225 103.825 286.225 94.8208C286.225 93.0154 285.642 90.6405 284.682 88.0459C284.366 89.5499 283.924 91.0059 283.296 92.4232C281.889 95.6034 279.679 98.3087 276.426 100.956C273.215 103.569 268.277 104.698 264.166 105.238C262.166 105.501 260.162 105.646 258.316 105.712Z" fill="black"/>
<path d="M118.505 225.746L192.328 305.246L266.149 225.746L192.327 242.782L118.505 225.746Z" fill="white"/>
<path fill-rule="evenodd" clip-rule="evenodd" d="M192.325 75.6172C193.035 75.6172 193.712 75.921 194.184 76.4518L285.042 178.666C285.62 179.317 285.815 180.222 285.559 181.053C285.302 181.884 284.63 182.521 283.786 182.732L192.928 205.446C192.533 205.545 192.119 205.545 191.723 205.446L100.864 182.734C100.02 182.523 99.3481 181.886 99.0914 181.054C98.8346 180.223 99.0308 179.319 99.6088 178.668L190.467 76.4519C190.939 75.921 191.614 75.6172 192.325 75.6172ZM189.839 84.6454L108.675 175.955L189.839 155.664V84.6454ZM192.325 160.17L111.722 180.321L192.325 200.469L272.928 180.319L192.325 160.17ZM275.975 175.954L194.812 155.664V84.6454L275.975 175.954ZM116.351 224.502C116.898 223.557 117.998 223.079 119.063 223.325L192.325 240.231L265.588 223.325C266.653 223.079 267.753 223.557 268.3 224.502C268.847 225.447 268.713 226.639 267.97 227.44L194.149 306.94C193.679 307.448 193.018 307.735 192.326 307.735C191.636 307.735 190.974 307.448 190.503 306.94L116.681 227.44C115.938 226.639 115.804 225.447 116.351 224.502ZM125.839 229.993L192.326 301.594L258.811 229.993L192.884 245.207C192.516 245.292 192.134 245.292 191.766 245.207L125.839 229.993Z" fill="black"/>
<path d="M191.993 303.916V242.239L118.379 225.328L191.993 303.916Z" fill="black"/>
<path fill-rule="evenodd" clip-rule="evenodd" d="M162.405 35.1126C160.531 35.471 158.67 35.8631 156.824 36.2879C155.486 36.5958 154.15 35.7603 153.843 34.4218C153.535 33.0832 154.37 31.7485 155.709 31.4406C157.616 31.002 159.537 30.5973 161.469 30.2273C163.364 29.8648 165.257 29.5368 167.149 29.2426C168.506 29.0316 169.777 29.9608 169.988 31.3181C170.2 32.6753 169.27 33.9466 167.913 34.1576C166.079 34.4427 164.243 34.761 162.405 35.1126ZM187.621 29.8335C187.603 28.4601 188.701 27.332 190.075 27.314C193.933 27.2629 197.77 27.35 201.583 27.5713C202.953 27.6509 204 28.827 203.92 30.1982C203.841 31.5695 202.666 32.6164 201.294 32.5368C197.599 32.3224 193.88 32.2381 190.141 32.2875C188.767 32.3056 187.64 31.2069 187.621 29.8335ZM136.48 39.7954C136.982 41.0739 136.353 42.5173 135.074 43.0194C131.526 44.4126 128.043 45.9319 124.631 47.5708C123.393 48.1655 121.907 47.6439 121.312 46.4059C120.717 45.1677 121.239 43.6819 122.477 43.0872C125.999 41.3957 129.594 39.8277 133.256 38.3894C134.535 37.8874 135.978 38.517 136.48 39.7954ZM221.468 32.4801C221.743 31.1343 223.056 30.265 224.402 30.5388C228.174 31.306 231.907 32.2056 235.594 33.2333C236.918 33.602 237.691 34.9735 237.322 36.2966C236.954 37.6197 235.582 38.3933 234.259 38.0246C230.685 37.0284 227.067 36.1565 223.41 35.413C222.064 35.1392 221.194 33.8262 221.468 32.4801ZM105.546 55.4506C106.314 56.5892 106.014 58.135 104.875 58.9031C101.72 61.0311 98.6474 63.2696 95.662 65.6121C94.5814 66.46 93.0181 66.2712 92.1702 65.1906C91.3225 64.11 91.511 62.5467 92.5916 61.6989C95.6703 59.2832 98.8393 56.9746 102.094 54.7795C103.232 54.0113 104.778 54.3119 105.546 55.4506ZM253.988 42.2434C254.54 40.9858 256.007 40.4135 257.264 40.9654C260.783 42.5092 264.243 44.1755 267.636 45.9599C268.853 46.599 269.32 48.1027 268.68 49.3184C268.041 50.5342 266.538 51.0016 265.322 50.3623C262.032 48.6323 258.678 47.0169 255.266 45.5202C254.008 44.9683 253.437 43.5013 253.988 42.2434ZM78.7059 77.4015C79.6984 78.351 79.7332 79.9253 78.7837 80.9177C76.1551 83.6654 73.625 86.5049 71.1983 89.4293C70.3212 90.4864 68.7532 90.6321 67.6962 89.7551C66.6392 88.878 66.4934 87.3101 67.3705 86.2531C69.8718 83.2386 72.4799 80.3119 75.1897 77.4794C76.1391 76.4868 77.7133 76.452 78.7059 77.4015ZM283.725 58.6346C284.528 57.5205 286.082 57.2687 287.196 58.0721C290.309 60.3163 293.342 62.6704 296.291 65.13C297.345 66.0097 297.487 67.578 296.607 68.6328C295.727 69.6875 294.159 69.8293 293.105 68.9495C290.246 66.5648 287.305 64.2824 284.287 62.1064C283.173 61.303 282.921 59.7487 283.725 58.6346ZM57.1028 104.526C58.2726 105.246 58.6373 106.777 57.9175 107.947C55.9265 111.183 54.0489 114.49 52.2897 117.862C51.6544 119.08 50.1522 119.552 48.9344 118.917C47.7166 118.281 47.2444 116.779 47.8798 115.561C49.6933 112.085 51.629 108.676 53.6814 105.341C54.4013 104.171 55.9331 103.806 57.1028 104.526ZM309.363 80.897C310.382 79.9765 311.956 80.0569 312.876 81.0763C315.443 83.9196 317.914 86.8585 320.282 89.8886C321.129 90.9708 320.936 92.5338 319.854 93.3797C318.772 94.2256 317.209 94.0339 316.363 92.9518C314.068 90.0147 311.672 87.1659 309.184 84.4095C308.263 83.39 308.344 81.8174 309.363 80.897ZM41.6953 135.589C42.9911 136.045 43.6724 137.465 43.2171 138.76C41.9594 142.339 40.8283 145.968 39.8289 149.641C39.4683 150.967 38.1015 151.749 36.7762 151.388C35.4509 151.027 34.6688 149.661 35.0294 148.335C36.0607 144.545 37.2273 140.802 38.5244 137.111C38.9798 135.815 40.3994 135.134 41.6953 135.589ZM329.733 108.061C330.925 107.377 332.443 107.789 333.128 108.98C335.03 112.296 336.823 115.692 338.497 119.163C339.095 120.4 338.575 121.887 337.339 122.484C336.102 123.081 334.615 122.562 334.017 121.325C332.395 117.96 330.657 114.669 328.813 111.456C328.13 110.265 328.541 108.745 329.733 108.061ZM33.295 169.227C34.6587 169.391 35.6318 170.63 35.4684 171.993C35.0181 175.749 34.7041 179.535 34.5308 183.346C34.4683 184.718 33.3055 185.779 31.9334 185.717C30.5612 185.655 29.4996 184.492 29.5619 183.12C29.7409 179.185 30.0651 175.278 30.5298 171.402C30.6933 170.037 31.9313 169.064 33.295 169.227ZM343.874 138.927C345.184 138.511 346.582 139.236 346.998 140.545C347.577 142.37 351.21 153.079 351.728 154.936C352.096 156.259 351.323 157.631 350 158C348.677 158.369 347.306 157.596 346.936 156.273C346.434 154.472 342.819 143.819 342.258 142.05C341.842 140.741 342.566 139.342 343.874 138.927ZM32.4525 203.884C33.8188 203.743 35.0403 204.738 35.1807 206.104C35.3746 207.99 38.1607 220.419 38.4257 222.309C38.6165 223.671 37.6684 224.927 36.3082 225.118C34.9479 225.309 33.6907 224.36 33.5 223C33 222.5 30.4331 208.558 30.2329 206.613C30.0925 205.247 31.0861 204.024 32.4525 203.884Z" fill="black"/>
</g>
<defs>
<clipPath id="clip0_1106_1053">
<rect width="382" height="382" fill="white" transform="translate(0 0.5)"/>
</clipPath>
</defs>
</svg>

<svg xmlns="http://www.w3.org/2000/svg" width="382" height="383" fill="none" viewBox="0 0 382 383"><g clip-path="url(#a)"><path fill="#A1FEA0" d="M382 191.5c0 105.487-85.513 191-191 191S0 296.987 0 191.5 85.514.5 191 .5s191 85.514 191 191"/><path fill="#000" fill-rule="evenodd" d="M191 377.526c102.74 0 186.026-83.286 186.026-186.026S293.74 5.474 191 5.474 4.974 88.761 4.974 191.5 88.261 377.526 191 377.526m0 4.974c105.487 0 191-85.513 191-191S296.487.5 191 .5 0 86.014 0 191.5s85.514 191 191 191" clip-rule="evenodd"/><path fill="#74FF71" d="M35.607 221.44c18.01 86.604 102.8 142.198 189.405 124.189 86.604-18.01 142.198-102.8 124.188-189.404"/><path fill="#000" fill-rule="evenodd" d="M225.516 348.061C137.567 366.35 51.461 309.892 33.171 221.943l4.87-1.013c17.73 85.26 101.203 139.991 186.462 122.262 85.259-17.731 139.992-101.204 122.261-186.464l4.87-1.011c18.29 87.948-38.169 174.054-126.118 192.344" clip-rule="evenodd"/><path fill="#74FF71" d="M200.344 225.958c86.596-18.009 153.282-49.503 148.949-70.343-4.335-20.842-78.049-23.138-164.645-5.129-86.596 18.008-153.283 49.502-148.949 70.342 4.334 20.841 78.048 23.137 164.645 5.13"/><path fill="#000" fill-rule="evenodd" d="M46.612 205.452c-6.912 6.093-9.26 11.107-8.476 14.88.784 3.771 4.938 7.435 13.705 10.265 8.555 2.761 20.617 4.427 35.411 4.888 29.547.92 69.422-2.976 112.586-11.953s81.288-21.299 108.019-33.923c13.382-6.322 23.782-12.657 30.526-18.601 6.912-6.09 9.26-11.105 8.476-14.878s-4.938-7.435-13.706-10.266c-8.554-2.761-20.616-4.427-35.41-4.887-29.547-.921-69.421 2.977-112.586 11.953s-81.288 21.299-108.018 33.924c-13.384 6.319-23.782 12.656-30.527 18.598m28.403-23.097c27.178-12.835 65.697-25.262 109.129-34.295 43.432-9.032 83.711-12.991 113.753-12.055 15.002.467 27.593 2.158 36.784 5.126 8.98 2.899 15.665 7.338 17.048 13.986s-2.98 13.385-10.057 19.624c-7.248 6.386-18.121 12.956-31.691 19.365-27.179 12.835-65.698 25.263-109.13 34.295s-83.712 12.992-113.754 12.055c-15-.466-27.592-2.158-36.784-5.125-8.979-2.899-15.664-7.339-17.047-13.987-1.383-6.649 2.98-13.384 10.058-19.623 7.247-6.385 18.12-12.956 31.69-19.366" clip-rule="evenodd"/><path fill="#A1FEA0" d="M323.405 199.321c8.242 0 14.923-6.681 14.923-14.922 0-8.242-6.681-14.922-14.923-14.922-8.24 0-14.921 6.68-14.921 14.922 0 8.241 6.681 14.922 14.921 14.922"/><path fill="#000" fill-rule="evenodd" d="M323.408 171.975c-6.866 0-12.434 5.567-12.434 12.435 0 6.867 5.568 12.435 12.434 12.435 6.869 0 12.435-5.568 12.435-12.435s-5.566-12.435-12.435-12.435M306 184.41c0-9.616 7.794-17.41 17.408-17.41s17.409 7.794 17.409 17.41c0 9.614-7.794 17.409-17.409 17.409S306 194.024 306 184.41" clip-rule="evenodd"/><path fill="#2FFF2B" d="M74.41 308.336c8.241 0 14.922-6.681 14.922-14.923 0-8.24-6.68-14.921-14.922-14.921-8.241 0-14.922 6.681-14.922 14.921 0 8.242 6.68 14.923 14.922 14.923"/><path fill="#000" fill-rule="evenodd" d="M74.409 280.975c-6.868 0-12.435 5.567-12.435 12.435 0 6.867 5.567 12.435 12.435 12.435s12.435-5.568 12.435-12.435-5.567-12.435-12.435-12.435M57 293.41c0-9.616 7.794-17.41 17.409-17.41s17.409 7.794 17.409 17.41c0 9.614-7.794 17.409-17.409 17.409S57 303.024 57 293.41" clip-rule="evenodd"/><path fill="#fff" d="m101.469 180.31 90.857 22.714 90.858-22.715-90.858-102.215z"/><path fill="#fff" d="m101.469 180.313 90.857-22.715 90.858 22.713"/><path fill="#000" d="M191.992 78.094v79.583l-89.531 21.886zM140.133 102 127 133h6.933L161 102z"/><path fill="#fff" d="M132 101.961 121.429 132c-5.286-1.487-13.525-5.296-18.878-11.154-6.796-7.436-7.552-16.981-7.551-26.026 0-6.692 5.692-16.948 8.376-20.82-.149.43-.358 2.667 0 8.173.447 6.883 1.789 11.185 7.603 15.917 4.652 3.785 15.952 4.158 21.021 3.871"/><path fill="#000" fill-rule="evenodd" d="M132 101.961a56 56 0 0 1-4.019.066c-5.614-.098-13.353-.968-17.002-3.937-5.814-4.732-7.156-9.034-7.603-15.917l-.047-.764c-.291-4.95-.095-7 .047-7.409-1.017 1.466-2.465 3.85-3.872 6.607C97.197 85.13 95 90.663 95 94.82c0 9.045.755 18.59 7.551 26.026 5.353 5.858 13.592 9.667 18.878 11.154zm-5.316 3.751-7.59 21.568c-4.532-1.78-10.005-4.837-13.737-8.921-5.76-6.302-6.582-14.534-6.582-23.538 0-1.806.582-4.18 1.542-6.775.318 1.504.76 2.96 1.387 4.377 1.407 3.18 3.617 5.886 6.87 8.533 3.211 2.613 8.149 3.742 12.26 4.282 2 .263 4.004.408 5.85.474" clip-rule="evenodd"/><path fill="#000" d="M244.868 102 258 133h-6.932L224 102z"/><path fill="#fff" d="M253 101.961 263.572 132c5.285-1.487 13.524-5.296 18.877-11.154 6.796-7.436 7.552-16.981 7.551-26.026 0-6.692-5.692-16.948-8.376-20.82.149.43.358 2.667 0 8.173-.447 6.883-1.789 11.185-7.603 15.917-4.652 3.785-15.953 4.158-21.021 3.871"/><path fill="#000" fill-rule="evenodd" d="M253 101.961c1.093.062 2.475.093 4.019.066 5.613-.098 13.353-.968 17.002-3.937 5.814-4.732 7.156-9.034 7.603-15.917q.026-.393.047-.764c.291-4.95.095-7-.047-7.409 1.017 1.466 2.464 3.85 3.872 6.607C287.803 85.13 290 90.663 290 94.82c.001 9.045-.755 18.59-7.551 26.026-5.353 5.858-13.592 9.667-18.877 11.154zm5.316 3.751 7.59 21.568c4.531-1.78 10.004-4.837 13.737-8.921 5.759-6.302 6.582-14.534 6.582-23.538 0-1.806-.583-4.18-1.543-6.775-.316 1.504-.758 2.96-1.386 4.377-1.407 3.18-3.617 5.886-6.87 8.533-3.211 2.613-8.149 3.742-12.26 4.282-2 .263-4.004.408-5.85.474" clip-rule="evenodd"/><path fill="#fff" d="m118.505 225.746 73.823 79.5 73.821-79.5-73.822 17.036z"/><path fill="#000" fill-rule="evenodd" d="M192.325 75.617c.71 0 1.387.304 1.859.835l90.858 102.214a2.49 2.49 0 0 1-1.256 4.066l-90.858 22.714a2.5 2.5 0 0 1-1.205 0l-90.859-22.712a2.486 2.486 0 0 1-1.255-4.066l90.858-102.216a2.5 2.5 0 0 1 1.858-.835m-2.486 9.028-81.164 91.31 81.164-20.291zm2.486 75.525-80.603 20.151 80.603 20.148 80.603-20.15zm83.65 15.784-81.163-20.29V84.645zm-159.624 48.548a2.49 2.49 0 0 1 2.712-1.177l73.262 16.906 73.263-16.906a2.487 2.487 0 0 1 2.382 4.115l-73.821 79.5a2.487 2.487 0 0 1-3.646 0l-73.822-79.5a2.49 2.49 0 0 1-.33-2.938m9.488 5.491 66.487 71.601 66.485-71.601-65.927 15.214c-.368.085-.75.085-1.118 0z" clip-rule="evenodd"/><path fill="#000" d="M191.993 303.916v-61.677l-73.614-16.911z"/><path fill="#000" fill-rule="evenodd" d="M162.405 35.113q-2.811.537-5.581 1.175a2.487 2.487 0 1 1-1.115-4.847q2.861-.659 5.76-1.214a166 166 0 0 1 5.68-.984 2.487 2.487 0 0 1 .764 4.915q-2.751.427-5.508.955m25.216-5.28a2.487 2.487 0 0 1 2.454-2.519q5.788-.075 11.508.257a2.486 2.486 0 0 1-.289 4.966 157 157 0 0 0-11.153-.25 2.49 2.49 0 0 1-2.52-2.453m-51.141 9.962a2.487 2.487 0 0 1-1.406 3.224 155 155 0 0 0-10.443 4.552 2.488 2.488 0 0 1-2.154-4.484 160 160 0 0 1 10.779-4.698 2.487 2.487 0 0 1 3.224 1.406m84.988-7.315a2.49 2.49 0 0 1 2.934-1.941q5.66 1.152 11.192 2.694a2.486 2.486 0 1 1-1.335 4.792 157 157 0 0 0-10.849-2.612 2.487 2.487 0 0 1-1.942-2.933M105.546 55.45a2.487 2.487 0 0 1-.671 3.453 159 159 0 0 0-9.213 6.71 2.487 2.487 0 0 1-3.07-3.914 163 163 0 0 1 9.502-6.92 2.486 2.486 0 0 1 3.452.672m148.442-13.207a2.487 2.487 0 0 1 3.276-1.278 163 163 0 0 1 10.372 4.995 2.486 2.486 0 1 1-2.314 4.402 158 158 0 0 0-10.056-4.842 2.49 2.49 0 0 1-1.278-3.277M78.706 77.402a2.487 2.487 0 0 1 .078 3.516 162 162 0 0 0-7.586 8.511 2.487 2.487 0 0 1-3.827-3.176 166 166 0 0 1 7.819-8.774 2.487 2.487 0 0 1 3.516-.078m205.019-18.767a2.486 2.486 0 0 1 3.471-.563 163 163 0 0 1 9.095 7.058 2.487 2.487 0 0 1-3.186 3.82 158 158 0 0 0-8.818-6.844 2.486 2.486 0 0 1-.562-3.471M57.103 104.526a2.486 2.486 0 0 1 .814 3.421 161 161 0 0 0-5.627 9.915 2.487 2.487 0 1 1-4.41-2.301 166 166 0 0 1 5.801-10.22 2.487 2.487 0 0 1 3.422-.815m252.26-23.629a2.49 2.49 0 0 1 3.513.18 162 162 0 0 1 7.406 8.812 2.486 2.486 0 1 1-3.919 3.063 157 157 0 0 0-7.179-8.543 2.487 2.487 0 0 1 .179-3.512M41.695 135.589a2.49 2.49 0 0 1 1.522 3.171 158 158 0 0 0-3.388 10.881 2.486 2.486 0 1 1-4.8-1.306 163 163 0 0 1 3.495-11.224 2.487 2.487 0 0 1 3.171-1.522m288.038-27.528a2.487 2.487 0 0 1 3.395.919 161 161 0 0 1 5.369 10.183 2.487 2.487 0 1 1-4.48 2.162 155 155 0 0 0-5.204-9.869 2.487 2.487 0 0 1 .92-3.395M33.295 169.227a2.49 2.49 0 0 1 2.173 2.766q-.676 5.635-.937 11.353a2.487 2.487 0 0 1-4.97-.226q.27-5.903.969-11.718a2.49 2.49 0 0 1 2.765-2.175m310.579-30.3a2.49 2.49 0 0 1 3.124 1.618c.579 1.825 4.212 12.534 4.73 14.391a2.488 2.488 0 0 1-4.792 1.337c-.502-1.801-4.117-12.454-4.678-14.223a2.486 2.486 0 0 1 1.616-3.123M32.452 203.884a2.487 2.487 0 0 1 2.729 2.22c.194 1.886 2.98 14.315 3.245 16.205A2.487 2.487 0 1 1 33.5 223c-.5-.5-3.067-14.442-3.267-16.387a2.49 2.49 0 0 1 2.22-2.729" clip-rule="evenodd"/></g><defs><clipPath id="a"><path fill="#fff" d="M0 .5h382v382H0z"/></clipPath></defs></svg>
